X: 1221
M: 3/8
L: 1/16
K: G
.d2(^cded) | B>dg2g2 | (fa)d2c2 | Bd G>DG>B |\
.d2(^cded) | Bdg2g2 | (fa)d2 ef | g4 :|
|: d/ed/ |\
a>fd>AB>c | (cB).e.d.d2 | (^cd)(Ad)(=cA) | _B=BG2 d/ed/ |\
a>fd>AB>c | (cBe).d.d2 | (^cde).d.d2 | (^cded).=c.A | G4 H:|
(e^def).^f.g | (cBcd).^d.e | (fdcG).A.B | (cGAB).c.d |\
(e^def).^f.g | (cBcd).^d.e | (fdBG).A.B | c4 :|
K: C
|: g2 |\
(fdBG) .F.D | (CEGc) .e.g | (fdBG) .F.D | (cGAB).c.d |\
(e^def).^f.g | (cBcd).^d.e | (fdBG).A.B | c4 "^D.C.":|

